X:102
T:Peacock's March
C:John Peacock
Z:Jack Campin, http://www.campin.me.uk/
S:Northumbrian Minstrelsy
M:C
L:1/8
K:G
(de/f/)|g2 d>d d2B>A|B2    G>G   G2 AB|cBAG              edcB|A>GA>G A2
(de/f/)|g2 d>d d2B>A|B2    G>G   G2 A2|Bd de/c/          B2A2|G2 G>G G2:|
 d>B   |A2 A>A AGAB |cB    cd/e/ d2 c2|A/G/A/B/ c/d/e/f/ gdBG|A2 A>A A2
 dB    |BG`Bd  cAce |de/f/ ge    d2 c2|Bdec              BdcA|G2 G>G G2:|

